64x64/apps/opensnitch-ui.svg

<svg xmlns="http://www.w3.org/2000/svg" width="64" height="64" version="1">
 <rect style="opacity:0.2" width="57" height="57" x="4" y="4" rx="17.1" ry="17.1"/>
 <rect style="fill:#e83c3c" width="57" height="57" x="4" y="3" rx="17.1" ry="17.1"/>
 <path style="opacity:0.2" d="m 37.486328,15.013672 c -2.172112,0.104959 -4.008043,0.715393 -5.814453,1.93164 -0.768288,0.517193 -1.924716,1.47341 -2.435547,2.125 -0.256654,0.327974 -0.257901,0.32784 -0.652344,0.226563 -0.222673,-0.0562 -1.04415,-0.09979 -1.888672,-0.09766 -1.323702,0.0028 -1.594739,0.02986 -2.347656,0.232422 -4.252951,1.142801 -7.20546,4.842117 -7.439453,9.169921 l -0.05078,0.986329 -0.337891,0.101562 c -1.210262,0.365063 -2.722015,1.318493 -3.785156,2.388672 -1.267984,1.276286 -2.12317,2.788359 -2.605469,4.601563 -0.2040317,0.767029 -0.2285154,1.01801 -0.2285154,2.40625 0,1.388274 0.024488,1.639108 0.2285154,2.40625 1.049183,3.944321 4.227586,6.847513 8.126953,7.419921 v -0.0039 c 0.286328,0.04219 6.300098,0.08052 13.367188,0.08789 13.768372,0.01105 13.567687,0.01689 15.181641,-0.431641 1.524309,-0.423483 3.611021,-1.669549 4.804687,-2.871094 1.249329,-1.257482 2.454265,-3.341603 2.888672,-4.992187 1.064942,-4.046719 -0.01314,-8.101384 -2.927735,-11.011719 -0.514988,-0.514238 -1.25776,-1.147991 -1.65039,-1.408203 L 49.205078,27.808594 49.25,26.8125 c 0.08407,-1.917578 -0.28112,-3.678859 -1.119141,-5.404297 -1.165456,-2.399631 -2.856336,-4.100366 -5.240234,-5.273437 -1.732788,-0.85235 -3.474712,-1.21336 -5.404297,-1.121094 z m 0.142578,2.996094 h 0.002 c 1.470111,-0.07001 2.617665,0.168146 3.935547,0.816406 1.857363,0.913973 2.956555,2.017618 3.867188,3.892578 0.636729,1.310989 0.882318,2.502077 0.818359,3.960938 l -0.04297,0.996093 a 3.0003,3.0003 0 0 0 1.339844,2.632813 l 0.712891,0.472656 c -0.02466,-0.01635 0.823174,0.665506 1.189453,1.03125 2.190383,2.187186 2.959067,5.037234 2.146484,8.125 -0.244827,0.93025 -1.355414,2.873881 -2.117187,3.640625 -0.693641,0.69822 -2.737637,1.889872 -3.478516,2.095703 -0.834453,0.231903 -0.550801,0.231077 -2.316406,0.28125 -1.765606,0.05017 -5.175924,0.04654 -12.060547,0.04102 -3.528917,-0.0037 -6.794508,-0.01536 -9.208984,-0.03125 -1.207238,-0.0079 -2.202429,-0.01586 -2.904297,-0.02539 -0.350934,-0.0048 -0.629262,-0.0091 -0.814453,-0.01367 -0.02701,-6.72e-4 -0.05997,-0.0067 -0.0957,-0.0098 -2.647244,-0.426975 -4.826882,-2.383807 -5.574218,-5.19336 -0.177102,-0.6659 -0.126953,-0.282927 -0.126953,-1.636718 0,-1.353758 -0.05012,-0.97106 0.126953,-1.636719 0.362067,-1.361193 0.926915,-2.342838 1.835937,-3.257813 0.688594,-0.693152 2.031527,-1.481115 2.521485,-1.628906 a 3.0003,3.0003 0 0 0 0.0039,-0.002 l 0.33789,-0.101563 a 3.0003,3.0003 0 0 0 2.126954,-2.71289 l 0.05078,-0.982422 v -0.002 c 0.166329,-3.061328 2.199518,-5.619825 5.220703,-6.431641 a 3.0003,3.0003 0 0 0 0.002,0 c 0.642819,-0.172939 0.290533,-0.128144 1.574219,-0.130859 a 3.0003,3.0003 0 0 0 0.002,0 c 0.369161,-9.31e-4 0.742979,0.0094 1.015625,0.02344 0.102585,0.0053 0.194566,0.02138 0.269531,0.0332 0.279348,0.106019 0.855178,0.305756 1.960938,-0.08008 1.3133,-0.458248 1.518467,-1.090689 1.646484,-1.255859 l 0.002,-0.002 c 0.03521,-0.04386 1.244913,-1.144363 1.75,-1.484375 1.410209,-0.949488 2.58866,-1.341758 4.28125,-1.423828 z M 35.076172,26 v 3 H 24 v 3 h 11.076172 v 3 L 42,30.716797 Z M 30.923828,35 24,39.716797 30.923828,44 V 41 H 42 V 38 H 30.923828 Z"/>
 <path style="fill:#f4f4f7" d="M 37.486328 14.013672 C 35.314216 14.118631 33.478285 14.729065 31.671875 15.945312 C 30.903587 16.462505 29.747159 17.418722 29.236328 18.070312 C 28.979674 18.398286 28.978427 18.398152 28.583984 18.296875 C 28.361311 18.240675 27.539834 18.197089 26.695312 18.199219 C 25.37161 18.202019 25.100573 18.229082 24.347656 18.431641 C 20.094705 19.574442 17.142196 23.273758 16.908203 27.601562 L 16.857422 28.587891 L 16.519531 28.689453 C 15.309269 29.054516 13.797516 30.007946 12.734375 31.078125 C 11.466391 32.354411 10.611205 33.866484 10.128906 35.679688 C 9.9248743 36.446717 9.9003906 36.697698 9.9003906 38.085938 C 9.9003906 39.474212 9.9248785 39.725046 10.128906 40.492188 C 11.178089 44.436509 14.356492 47.339701 18.255859 47.912109 L 18.255859 47.908203 C 18.542187 47.950393 24.555957 47.988724 31.623047 47.996094 C 45.391419 48.007144 45.190734 48.012986 46.804688 47.564453 C 48.328997 47.14097 50.415709 45.894904 51.609375 44.693359 C 52.858704 43.435877 54.06364 41.351756 54.498047 39.701172 C 55.562989 35.654453 54.484904 31.599788 51.570312 28.689453 C 51.055324 28.175215 50.312552 27.541462 49.919922 27.28125 L 49.205078 26.808594 L 49.25 25.8125 C 49.33407 23.894922 48.96888 22.133641 48.130859 20.408203 C 46.965403 18.008572 45.274523 16.307837 42.890625 15.134766 C 41.157837 14.282416 39.415913 13.921406 37.486328 14.013672 z M 37.628906 17.009766 L 37.630859 17.009766 C 39.10097 16.939756 40.248524 17.177912 41.566406 17.826172 C 43.423769 18.740145 44.522961 19.84379 45.433594 21.71875 C 46.070323 23.029739 46.315912 24.220827 46.251953 25.679688 L 46.208984 26.675781 A 3.0003 3.0003 0 0 0 47.548828 29.308594 L 48.261719 29.78125 C 48.237059 29.7649 49.084893 30.446756 49.451172 30.8125 C 51.641555 32.999686 52.410239 35.849734 51.597656 38.9375 C 51.352829 39.86775 50.242242 41.811381 49.480469 42.578125 C 48.786828 43.276345 46.742832 44.467997 46.001953 44.673828 C 45.1675 44.905731 45.451152 44.904905 43.685547 44.955078 C 41.919941 45.005248 38.509623 45.001614 31.625 44.996094 C 28.096083 44.992394 24.830492 44.980734 22.416016 44.964844 C 21.208778 44.956944 20.213587 44.948983 19.511719 44.939453 C 19.160785 44.934653 18.882457 44.930351 18.697266 44.925781 C 18.670256 44.925109 18.637293 44.919116 18.601562 44.916016 C 15.954318 44.489041 13.77468 42.532209 13.027344 39.722656 C 12.850242 39.056756 12.900391 39.439729 12.900391 38.085938 C 12.900391 36.73218 12.850271 37.114878 13.027344 36.449219 C 13.389411 35.088026 13.954259 34.106381 14.863281 33.191406 C 15.551875 32.498254 16.894808 31.710291 17.384766 31.5625 A 3.0003 3.0003 0 0 0 17.388672 31.560547 L 17.726562 31.458984 A 3.0003 3.0003 0 0 0 19.853516 28.746094 L 19.904297 27.763672 L 19.904297 27.761719 C 20.070626 24.700391 22.103815 22.141894 25.125 21.330078 A 3.0003 3.0003 0 0 0 25.126953 21.330078 C 25.769772 21.157139 25.417486 21.201934 26.701172 21.199219 A 3.0003 3.0003 0 0 0 26.703125 21.199219 C 27.072286 21.198288 27.446104 21.208616 27.71875 21.222656 C 27.821335 21.227936 27.913316 21.244041 27.988281 21.255859 C 28.267629 21.361878 28.843459 21.561615 29.949219 21.175781 C 31.262519 20.717533 31.467686 20.085092 31.595703 19.919922 L 31.597656 19.917969 C 31.632866 19.874109 32.842569 18.773606 33.347656 18.433594 C 34.757865 17.484106 35.936316 17.091836 37.628906 17.009766 z M 35.076172 25 L 35.076172 28 L 24 28 L 24 31 L 35.076172 31 L 35.076172 34 L 42 29.716797 L 35.076172 25 z M 30.923828 34 L 24 38.716797 L 30.923828 43 L 30.923828 40 L 42 40 L 42 37 L 30.923828 37 L 30.923828 34 z"/>
 <path style="fill:#f4f4f7" d="m 18.628496,45.1 c 0.0288,0.0042 -0.0026,2.93e-4 0.03296,0.0055 a 2.8127357,2.8335693 0 0 0 -0.01097,0 c -0.0076,-0.0011 -0.01443,-0.0043 -0.02198,-0.0055 z"/>
 <path style="fill:#f4f4f7;opacity:0.2" d="M 21.099609 3 C 11.626209 3 4 10.626209 4 20.099609 L 4 21.099609 C 4 11.626209 11.626209 4 21.099609 4 L 43.900391 4 C 53.373791 4 61 11.626209 61 21.099609 L 61 20.099609 C 61 10.626209 53.373791 3 43.900391 3 L 21.099609 3 z"/>
</svg>

<svg xmlns="http://www.w3.org/2000/svg" width="64" height="64" version="1"><rect style="opacity:.2" width="57" height="57" x="4" y="4" rx="17.1" ry="17.1"/><rect style="fill:#e83c3c" width="57" height="57" x="4" y="3" rx="17.1" ry="17.1"/><path style="opacity:.2" d="M37.486 15.014c-2.172.105-4.008.715-5.814 1.931-.768.518-1.925 1.474-2.436 2.125-.256.328-.258.328-.652.227-.223-.056-1.044-.1-1.889-.098-1.323.003-1.594.03-2.347.233a10.025 10.025 0 0 0-7.44 9.17l-.05.986-.338.101c-1.21.366-2.722 1.319-3.786 2.39-1.268 1.275-2.123 2.787-2.605 4.6-.204.768-.229 1.019-.229 2.407 0 1.388.025 1.639.229 2.406 1.05 3.945 4.227 6.848 8.127 7.42v-.004c.286.042 6.3.08 13.367.088 13.768.011 13.568.017 15.182-.432 1.524-.423 3.61-1.67 4.804-2.87 1.25-1.258 2.455-3.342 2.889-4.993 1.065-4.047-.013-8.101-2.928-11.012-.515-.514-1.257-1.148-1.65-1.408l-.715-.472.045-.997a10.956 10.956 0 0 0-1.12-5.404c-1.165-2.4-2.855-4.1-5.24-5.273a10.705 10.705 0 0 0-5.404-1.121zm.143 2.996h.002c1.47-.07 2.618.168 3.935.816 1.858.914 2.957 2.018 3.868 3.893.636 1.31.882 2.502.818 3.96l-.043.997a3 3 0 0 0 1.34 2.633l.713.472c-.025-.016.823.666 1.19 1.031 2.19 2.188 2.958 5.038 2.146 8.125-.245.93-1.356 2.874-2.117 3.641-.694.698-2.738 1.89-3.479 2.096-.834.232-.55.23-2.316.281-1.766.05-5.176.047-12.061.041-3.529-.004-6.794-.015-9.209-.031a457.022 457.022 0 0 1-2.904-.026c-.351-.004-.63-.009-.815-.013-.027 0-.06-.007-.095-.01-2.648-.427-4.827-2.384-5.575-5.193-.177-.666-.127-.283-.127-1.637s-.05-.971.127-1.637c.362-1.361.927-2.343 1.836-3.258.689-.693 2.032-1.48 2.522-1.629a3 3 0 0 0 .004-.002l.338-.101a3 3 0 0 0 2.127-2.713l.05-.982v-.002c.167-3.062 2.2-5.62 5.221-6.432a3 3 0 0 0 .002 0c.643-.173.29-.128 1.574-.13a3 3 0 0 0 .002 0c.37-.002.743.008 1.016.023.102.005.194.02.27.033.279.106.855.305 1.96-.08 1.314-.459 1.519-1.091 1.647-1.256l.002-.002c.035-.044 1.245-1.145 1.75-1.485 1.41-.95 2.589-1.341 4.281-1.423zM35.076 26v3H24v3h11.076v3L42 30.717zm-4.152 9L24 39.717 30.924 44v-3H42v-3H30.924z"/><path style="fill:#f4f4f7" d="M37.486 14.014c-2.172.105-4.008.715-5.814 1.931-.768.518-1.925 1.474-2.436 2.125-.256.328-.258.328-.652.227-.223-.056-1.044-.1-1.889-.098-1.323.003-1.594.03-2.347.233a10.025 10.025 0 0 0-7.44 9.17l-.05.986-.338.101c-1.21.366-2.722 1.319-3.786 2.39-1.268 1.275-2.123 2.787-2.605 4.6-.204.768-.229 1.019-.229 2.407 0 1.388.025 1.639.229 2.406 1.05 3.945 4.227 6.848 8.127 7.42v-.004c.286.042 6.3.08 13.367.088 13.768.011 13.568.017 15.182-.432 1.524-.423 3.61-1.67 4.804-2.87 1.25-1.258 2.455-3.342 2.889-4.993 1.065-4.047-.013-8.101-2.928-11.012-.515-.514-1.257-1.148-1.65-1.408l-.715-.472.045-.997a10.956 10.956 0 0 0-1.12-5.404c-1.165-2.4-2.855-4.1-5.24-5.273a10.705 10.705 0 0 0-5.404-1.121zm.143 2.996h.002c1.47-.07 2.618.168 3.935.816 1.858.914 2.957 2.018 3.868 3.893.636 1.31.882 2.502.818 3.96l-.043.997a3 3 0 0 0 1.34 2.633l.713.472c-.025-.016.823.666 1.19 1.032 2.19 2.187 2.958 5.037 2.146 8.125-.245.93-1.356 2.873-2.118 3.64-.693.698-2.737 1.89-3.478 2.096-.835.232-.55.23-2.316.281-1.766.05-5.176.047-12.061.041-3.529-.004-6.795-.015-9.209-.031a457.009 457.009 0 0 1-2.904-.026c-.351-.004-.63-.009-.815-.013-.027 0-.06-.007-.095-.01-2.648-.427-4.827-2.384-5.575-5.193-.177-.666-.127-.283-.127-1.637s-.05-.971.127-1.637c.362-1.361.927-2.343 1.836-3.258.689-.693 2.032-1.48 2.522-1.629a3 3 0 0 0 .004-.001l.338-.102a3 3 0 0 0 2.127-2.713l.05-.982v-.002c.167-3.062 2.2-5.62 5.221-6.432a3 3 0 0 0 .002 0c.643-.173.29-.128 1.574-.13a3 3 0 0 0 .002 0c.37-.002.743.009 1.016.023.102.005.194.021.27.033.279.106.854.306 1.96-.08 1.314-.458 1.519-1.09 1.647-1.256l.002-.002c.035-.044 1.245-1.144 1.75-1.484 1.41-.95 2.588-1.342 4.28-1.424zM35.076 25v3H24v3h11.076v3L42 29.717 35.076 25zm-4.152 9L24 38.717 30.924 43v-3H42v-3H30.924v-3z"/><path style="fill:#f4f4f7" d="m18.628 45.1.033.005a2.813 2.834 0 0 0-.01 0c-.008 0-.015-.004-.022-.005z"/><path style="fill:#f4f4f7;opacity:.2" d="M21.1 3C11.626 3 4 10.626 4 20.1v1C4 11.626 11.626 4 21.1 4h22.8C53.374 4 61 11.626 61 21.1v-1C61 10.626 53.374 3 43.9 3H21.1z"/></svg>
